X:1
T:God Is Love (Woodruff)
T:God Is Love (Woodruff)
T:John Sylvester Fearis
T:Anne H. Woodruff, 1908, alt.
T:Public Domain Courtesy of the Cyber Hymnal™
C:John Sylvester Fearis
Z:Public Domain
Z:Courtesy of the Cyber Hymnal™
%%score ( 1 2 ) ( 3 4 )
L:1/8
Q:1/4=97
M:6/8
K:A
V:1 treble 
V:2 treble 
V:3 bass 
V:4 bass 
V:1
 [Ec]2 [Ec] [^D^B]2 [DB] | [Ec]2 [CA] [Fd]2 [Ec] | [DB]2 [DB] [C^A]2 [CA] | [DB]2 E (e2 d) | %4
w: 1.~God is Love, the|Sun, dis- pel- ling|Dark- ness, doubt; how|fast they flee! *|
w: 2.~God is Love and|Law u- nit- ed,|Mer- cy joined to|just de- gree, *|
w: 3.~God is Love, to|an- swer an- guish,|Ah! His face I|fain would see; *|
w: 4.~God is Love and|Life un- end- ing,|Was, and is, and|e’er shall be; *|
 [Ec]2 [Ec] [=Ge]2 [Ge] | [Fd]2 F [Fc]2 [FB] | [EA]3 [Gc]2 [GB] | [EA]6 || %8
w: Beam of glo- ry,|ter- ror quell- ing,|Fall, fall on|me.|
w: Mer- cy, tho’ His|law I’ve slight- ed,|Fall, fall on|me.|
w: Eye of pi- ty,|as I lan- guish,|Fall, fall on|me.|
w: Soft- ly may His|peace, de- scend- ing,|Fall, fall on|me.|
"^Refrain" [Ec]2 [Ec] F3 | [Dd]2 [Dd] G3 | [CA]2 [EB] ([Ec][=Ge])[Fd] | %11
w: |||
w: |||
w: |||
w: |||
 ([EG]!fermata![Gc])[GB] [EA]3 |] %12
w: |
w: |
w: |
w: |
V:2
 x6 | x6 | x6 | x2 E E3 | x6 | x2 F x3 | x6 | x6 || x3 (F2 E) | x3 (E2 D) | x6 | x6 |] %12
V:3
 [A,,A,]2 [A,,A,] [A,,F,]2 [A,,F,] | [A,,E,]2 [A,,E,] [A,,A,]2 [A,,A,] | %2
w: ~ ~ ~ ~|~ ~ ~ ~|
 [E,G,]2 [E,G,] [E,^^F,]2 [E,F,] | [E,G,]2 [B,D] ([A,C]2 [G,B,]) | A,2 A, [C,A,]2 [C,A,] | %5
w: ~ ~ ~ ~|~ ~ ~ *|~ ~ ~ ~|
 [D,A,]2 [D,D] [D,E]2 [D,D] | [E,C]3 [E,E]2 [E,D] | [A,C]6 || A,2 A, (D2 C) | %9
w: ~ ~ ~ ~|~ ~ ~|~|Fall on me, *|
 B,2 B, ([E,C]2 [^E,B,]) | [F,A,]2 [E,G,] A,[C,^A,][D,B,] | !fermata!B,!fermata!E[E,D] [A,C]3 |] %12
w: fall on me, *|Beam of glo- ry, fall|* * on me.|
V:4
 x6 | x6 | x6 | x6 | A,2 A, x3 | x6 | x6 | x6 || A,2 A, F,3 | B,2 B, x3 | x3 ^A, x2 | E,2 x4 |] %12

